common/src/main/resources/glyphs/plugins/datagrip/expui/setKey.svg

<svg xmlns="http://www.w3.org/2000/svg" width="16" height="16" fill="#26C6DA" data-big="true" viewBox="0 0 24 24"><path d="M8 3a2 2 0 0 0-2 2v4a2 2 0 0 1-2 2H3v2h1a2 2 0 0 1 2 2v4a2 2 0 0 0 2 2h2v-2H8v-5a2 2 0 0 0-2-2 2 2 0 0 0 2-2V5h2V3m6 0a2 2 0 0 1 2 2v4a2 2 0 0 0 2 2h1v2h-1a2 2 0 0 0-2 2v4a2 2 0 0 1-2 2h-2v-2h2v-5a2 2 0 0 1 2-2 2 2 0 0 1-2-2V5h-2V3z"/><path fill="#FDD835" d="M14.25 19.5a1.5 1.5 0 0 1-1.5-1.5 1.5 1.5 0 0 1 1.5-1.5 1.5 1.5 0 0 1 1.5 1.5 1.5 1.5 0 0 1-1.5 1.5m4.238-3a4.49 4.49 0 0 0-4.238-3 4.5 4.5 0 0 0-4.5 4.5 4.5 4.5 0 0 0 4.5 4.5 4.49 4.49 0 0 0 4.238-3h3.262v3h3v-3h1.5v-3z"/></svg>

<!--
  - The MIT License (MIT)
  -
  - Copyright (c) 2015-2024 Elior "Mallowigi" Boukhobza
  -
  - Permission is hereby granted, free of charge, to any person obtaining a copy
  - of this software and associated documentation files (the "Software"), to deal
  - in the Software without restriction, including without limitation the rights
  - to use, copy, modify, merge, publish, distribute, sublicense, and/or sell
  - copies of the Software, and to permit persons to whom the Software is
  - furnished to do so, subject to the following conditions:
  -
  - The above copyright notice and this permission notice shall be included in all
  - copies or substantial portions of the Software.
  -
  - THE SOFTWARE IS PROVIDED "AS IS", WITHOUT WARRANTY OF ANY KIND, EXPRESS OR
  - IMPLIED, INCLUDING BUT NOT LIMITED TO THE WARRANTIES OF MERCHANTABILITY,
  - FITNESS FOR A PARTICULAR PURPOSE AND NONINFRINGEMENT. IN NO EVENT SHALL THE
  - AUTHORS OR COPYRIGHT HOLDERS BE LIABLE FOR ANY CLAIM, DAMAGES OR OTHER
  - LIABILITY, WHETHER IN AN ACTION OF CONTRACT, TORT OR OTHERWISE, ARISING FROM,
  - OUT OF OR IN CONNECTION WITH THE SOFTWARE OR THE USE OR OTHER DEALINGS IN THE
  - SOFTWARE.
  -->


<svg data-big="true" xmlns="http://www.w3.org/2000/svg" version="1.1" width="16px" height="16px" fill="#26C6DA"
     viewBox="0 0 24 24">
  <path
    d="M8,3A2,2 0 0,0 6,5V9A2,2 0 0,1 4,11H3V13H4A2,2 0 0,1 6,15V19A2,2 0 0,0 8,21H10V19H8V14A2,2 0 0,0 6,12A2,2 0 0,0 8,10V5H10V3M16,3A2,2 0 0,1 18,5V9A2,2 0 0,0 20,11H21V13H20A2,2 0 0,0 18,15V19A2,2 0 0,1 16,21H14V19H16V14A2,2 0 0,1 18,12A2,2 0 0,1 16,10V5H14V3H16Z"/>
  <path transform="scale(.75) translate(12 12)" fill="#FDD835"
        d="M7,14A2,2 0 0,1 5,12A2,2 0 0,1 7,10A2,2 0 0,1 9,12A2,2 0 0,1 7,14M12.65,10C11.83,7.67 9.61,6 7,6A6,6 0 0,0 1,12A6,6 0 0,0 7,18C9.61,18 11.83,16.33 12.65,14H17V18H21V14H23V10H12.65Z"/>
</svg>
